X: 5
T: The Humours Of Kiltyclogher
R: jig
M: 6/8
L: 1/8
K: Ador
B|AGE G2 E|c2 E EGE|DED D2 E|GED D2 B|
AGE G2 E|c2 E DEG|~A2 A BAG|~A3 ~A2:|
|:B|c2 B c2 d|ecA ABc|BGG GAB|dBG GAB|
c2 B c2 d|ecA ABc|BAG GAB|~A3 ~A2:|


Tune 1043	Setting 1043

